X:1
T:Sicut ovis ad occisionem - Viadana
T:James Gibb editions
T:#
%%score [ 1 2 3 4 ]
L:1/8
Q:1/4=200
M:none
K:F
V:1 treble nm="Soprano" snm="S"
V:2 treble nm="Alto" snm="A"
V:3 treble-8 nm="Tenor" snm="T"
V:4 bass nm="Bass" snm="B"
V:1
"^Sicut ovis ad occisionem""^Ludovico da Viadana\n(1560-1627)" G12 A4 | B8 A4 A4- | A4 G4 F4 F4 | %3
w: Si- cut|o- vis ad|* oc- ci- si-|
 G8 F4 G4 | A4 B8 A4 | A4 G8 A4 | A4 G4 c8 | F4 B8 A4 | G6 G2 A4 A4 | A8 A8 | z16 | z4 G6 G2 F4 | %12
w: o- nem du-|ctus est, et|dum ma- le|tra- cta- re-|tur, non a-|pe- ru- it os|su- um:||tra- di- tus|
 G4 G4 A8 | D8 || B8 | A4 A8 G4 | F4 B4 A6 A2 | G4 (B6 A2 G4- | G4 ^F4) G16 || F16 | G8 B8 | B16 | %22
w: est ad mor-|tem:|Ut|vi- vi- fi-|ca- ret po- pu-|lum su\- * *|* * um.|Tradidit~in~mortem~animam|su- am,|et~inter~sceleratos|
 A4 B8 G4- | G4 ^F4 G16 || B8 | A4 A8 G4 | F4[Q:1/4=198] B4[Q:1/4=193] A6[Q:1/4=190] A2 | %27
w: re- pu- ta\-|* tis est.|Ut|vi- vi- fi-|ca- ret po- pu-|
[Q:1/4=187] G4[Q:1/4=183] (B6[Q:1/4=180] A2[Q:1/4=177] G4- | %28
w: lum su\- * *|
[Q:1/4=174] G4[Q:1/4=171] ^F4)[Q:1/4=170] G16 || %29
w: * * um.|
V:2
 D12 D4 | D8 F4 F4- | F4 _E4 D4 D4 | (B,4 C4) D4 D4 | F4 F8 F4 | F4 D8 F4 | F4 _E4 E8 | D4 F8 F4 | %8
w: Si- cut|o- vis ad|* oc- ci- si-|o\- * nem du-|ctus est, et|dum ma- le|tra- cta- re-|tur, non a-|
 D6 !courtesy!=E2 F4 F4 | E8 ^F8 | z4 D6 B,2 C4 | _E4 C4 (D8 | _E6 D2 C8) | =B,8 || G,4 G4 | %15
w: pe- ru- it os|su- um:|tra- di- tus|est ad mor\-||tem:|Ut vi-|
 F12 _E4 | D4 F4 F6 F2 | (D6 CD) (_E4 C4 | D8) D16 || D16 | _E8 D8 | F16 | F4 D4 _E8- | %23
w: vi- fi-|ca- ret po- pu-|lum * * su\- *|* um.|Tradidit~in~mortem~animam|su- am,|et~inter~sceleratos|re- pu- ta\-|
 E4 D4 D16 || G,4 G4 | F12 _E4 | D4 F4 F6 F2 | (D6 CD) (_E4 C4 | D8) D16 || %29
w: * tis est.|Ut vi-|vi- fi-|ca- ret po- pu-|lum * * su\- *|* um.|
V:3
 B12 A4 | (G2 A2 B2 c2) d4 c4- | c4 c4 A4 B4 | G8 A4 B4 | c4 d8 c4 | d4 B8 c4 | d4 G4 (G4 A4) | %7
w: Si- cut|o\- * * * vis ad|* oc- ci- si-|o- nem du-|ctus est, et|dum ma- le|tra- cta- re\- *|
 B4 d8 c4 | B6 B2 c4 d4 | (d4 ^c4) d8 | z4 B6 B2 A4 | B4 G4 (A6 F2 | c4 G8 ^F4) | G8 || z4 d4- | %15
w: tur, non a-|pe- ru- it os|su\- * um:|tra- di- tus|est ad mor\- *||tem:|Ut|
 d4 c4 c4 c4 | A4 d4 c6 c2 | B8 (G8 | A8) G16 || A16 | c8 F8 | d16 | c4 B4 (G6 AB | c4) A4 =B16 || %24
w: * vi- vi- fi-|ca- ret po- pu-|lum su\-|* um.|Tradidit~in~mortem~animam|su- am,|et~inter~sceleratos|re- pu- ta\- * *|* tis est.|
 z4 d4- | d4 c4 c4 c4 | A4 d4 c6 c2 | B8 (G8 | A8) G16 || %29
w: Ut|* vi- vi- fi-|ca- ret po- pu-|lum su\-|* um.|
V:4
 G,12 ^F,4 | G,8 D,4 F,4- | F,4 C,4 D,4 B,,4 | _E,8 D,4 G,4 | F,4 B,8 F,4 | D,4 G,8 F,4 | %6
w: Si- cut|o- vis ad|* oc- ci- si-|o- nem du-|ctus est, et|dum ma- le|
 D,4 _E,4 C,8 | B,,4 B,,8 F,4 | G,6 G,2 F,4 D,4 | A,8 D,8 | z4 G,6 G,2 F,4 | _E,8 D,8 | %12
w: tra- cta- re-|tur, non a-|pe- ru- it os|su- um:|tra- di- tus|est ad|
 (C,6 B,,2 A,,8) | G,,8 || G,8 | D,4 F,8 C,4 | D,4 B,,4 F,6 F,2 | G,8 (_E,8 | D,8) G,,16 || D,16 | %20
w: mor\- * *|tem:|Ut|vi- vi- fi-|ca- ret po- pu-|lum su\-|* um.|Tradidit~in~mortem~animam|
 C,8 B,,8 | B,,16 | F,4 G,4 (_E,6 D,2 | C,4) D,4 G,,16 || G,8 | D,4 F,8 C,4 | D,4 B,,4 F,6 F,2 | %27
w: su- am,|et~inter~sceleratos|re- pu- ta\- *|* tis est.|Ut|vi- vi- fi-|ca- ret po- pu-|
 G,8 (_E,8 | D,8) G,,16 || %29
w: lum su\-|* um.|

